X:1
T:Paddy Killoran's
R:jig
C:
D:From recording by J-P Loyer, Ojnab
Z:Translated to abc by Debby Knight
Z:
M:6/8
K:G
"G"G,3 DB,D |GFG Bdg|"C"edc "Am"BcA| "D"BGE DB,A, |
"G"G,3 DB,D |GFG Bdg|"C"edc BcA |[1 "D"BGF "G"G3 :|[2 "D"BGF "G"G2 ||
D|"G"GBd g3| "C"ece "G"d2B |"C"cBc "G"dBG |"Am7"AGA "D"BGE|
"G"GBd g3| "C"ece "G"d2B |"C"cBc "G"dBG |[1"D"AGF "G"G2:|[2 "D"AGF "G"G3||

